X:711
M:C|
L:1/8
K:E Minor
|:f|geBA GFEg|fdAG FEDf|1 geBA GFEg|fdaf gee:|2 gebg faef|
dBAF BEE||

